public/assets/facebook_green.svg

<?xml version="1.0" encoding="UTF-8"?>
<svg width="34px" height="66px" viewBox="0 0 34 66" version="1.1" xmlns="http://www.w3.org/2000/svg" xmlns:xlink="http://www.w3.org/1999/xlink">
    <!-- Generator: Sketch 52.6 (67491) - http://www.bohemiancoding.com/sketch -->
    <title>Item88</title>
    <desc>Created with Sketch.</desc>
    <g id="PROD" stroke="none" stroke-width="1" fill="none" fill-rule="evenodd">
        <g id="1_Desktop-/-HP-_2" transform="translate(-360.000000, -5247.000000)" fill="#5FEB98">
            <g id="RS" transform="translate(0.000000, 4743.000000)">
                <g id="Group-4" transform="translate(360.000000, 504.000000)">
                    <path d="M0,21.5509383 L7.28888889,21.5509383 L7.28888889,18.493521 L7.28888889,15.4977659 L7.28888889,14.9993298 C7.28888889,12.116622 7.36666667,7.66152815 9.63333333,4.90214477 C12.0222222,1.98346738 15.3,-3.55271368e-15 20.9388889,-3.55271368e-15 C30.1277778,-3.55271368e-15 34,1.20755139 34,1.20755139 L32.1833333,11.191689 C32.1833333,11.191689 29.1444444,10.3798034 26.3111111,10.3798034 C23.4777778,10.3798034 20.9388889,11.3150134 20.9388889,13.9356568 L20.9388889,14.9993298 L20.9388889,18.493521 L20.9388889,21.5509383 L32.5555556,21.5509383 L31.75,31.2987042 L20.9388889,31.2987042 L20.9388889,65.1666667 L7.28888889,65.1666667 L7.28888889,31.2987042 L0,31.2987042 L0,21.5509383 Z" id="Item88"></path>
                </g>
            </g>
        </g>
    </g>
</svg>

<?xml version="1.0" encoding="UTF-8"?>
<svg version="1.1" viewBox="0 0 34 66" xmlns="http://www.w3.org/2000/svg">
<title>Item88</title>
<desc>Created with Sketch.</desc>
<g fill="none" fill-rule="evenodd">
<g transform="translate(-360 -5247)" fill="#5FEB98">
<g transform="translate(0 4743)">
<g transform="translate(360 504)">
<path d="m0 21.551h7.2889v-3.0574-2.9958-0.49844c0-2.8827 0.077778-7.3378 2.3444-10.097 2.3889-2.9187 5.6667-4.9021 11.306-4.9021 9.1889 0 13.061 1.2076 13.061 1.2076l-1.8167 9.9841s-3.0389-0.81189-5.8722-0.81189-5.3722 0.93521-5.3722 3.5559v1.0637 3.4942 3.0574h11.617l-0.80556 9.7478h-10.811v33.868h-13.65v-33.868h-7.2889v-9.7478z"/>
</g>
</g>
</g>
</g>
</svg>
